icons/gem.svg

<svg width="24" height="24" viewBox="0 0 24 24" fill="none" xmlns="http://www.w3.org/2000/svg">
<path fill-rule="evenodd" clip-rule="evenodd" d="M5.22002 4.37549C5.31364 4.25855 5.43234 4.16414 5.56735 4.09924C5.70236 4.03433 5.85022 4.00058 6.00002 4.00049H18C18.1498 4.00058 18.2977 4.03433 18.4327 4.09924C18.5677 4.16414 18.6864 4.25855 18.78 4.37549L22.78 9.37549C22.9289 9.5612 23.0067 9.79394 22.9994 10.0319C22.992 10.2698 22.9001 10.4973 22.74 10.6735L12.74 21.6735C12.6463 21.7766 12.532 21.859 12.4046 21.9154C12.2772 21.9718 12.1394 22.0009 12 22.0009C11.8607 22.0009 11.7229 21.9718 11.5954 21.9154C11.468 21.859 11.3537 21.7766 11.26 21.6735L1.26002 10.6735C1.09995 10.4973 1.00799 10.2698 1.00066 10.0319C0.993326 9.79394 1.07111 9.5612 1.22002 9.37549L5.22002 4.37549V4.37549ZM6.48002 6.00049L4.08002 9.00049H7.52002L9.92002 6.00049H6.48002ZM12 6.60049L10.08 9.00049H13.92L12 6.60049ZM14.572 11.0005H9.42802L12 18.0745L14.572 11.0005ZM9.32602 16.5725L7.30002 11.0005H4.26002L9.32602 16.5725V16.5725ZM14.674 16.5725L16.7 11.0005H19.74L14.674 16.5725ZM19.92 9.00049H16.482L14.082 6.00049H17.52L19.92 9.00049Z" fill="black"/>
</svg>

<svg
  width="24"
  height="24"
  viewBox="0 0 24 24"
  xmlns="http://www.w3.org/2000/svg"
>
  <path
    fill-rule="evenodd"
    clip-rule="evenodd"
    d="M5.22 4.375A1 1 0 0 1 6 4h12a1 1 0 0 1 .78.375l4 5a1 1 0 0 1-.04 1.299l-10 11a1 1 0 0 1-1.48 0l-10-11a1 1 0 0 1-.04-1.299l4-5zM6.48 6l-2.4 3h3.44l2.4-3H6.48zm5.52.6L10.08 9h3.84L12 6.6zm2.572 4.4H9.428L12 18.076 14.572 11zm-5.246 5.573L7.3 11H4.26l5.066 5.572zm5.348 0L16.7 11h3.04l-5.066 5.572zM19.92 9h-3.438l-2.4-3h3.438l2.4 3z"
  />
</svg>
